!! 00000] TT[WS
!!!OTL: Mai sirong
!!!ARE: Asia, China,ÿShanxi Linxian
!! Ethnic Group: Han
!! WI, 60 (1)
!!!SCT: J0067
!!!YEM: Copyright 1995, estate of Helmut Schaffrath.
**kern
*ICvox
*Ivox
*M2/4
*k[f#c#]
*D:
{16ff#
16aa
16ff#
16ee
4ff#
=1
8a
16a
16b
4dd
=2
16dd
16ee
16ff#
16aa
16a
16b
8dd
=3
16ff#
16ee
16cc#
16b
4a}
=4
{16ff#
16aa
16ff#
16ee
16ff#
16aa
16ff#
16ee
=5
16a
16a
16a
16b
4dd
=6
16dd
16ee
16ff#
16aa
16a
16b
8dd
=7
16ff#
16aa
16cc#
16b
4a}
==
!!!AGN: Xiaodiao. Maimai
!!!ONB: ESAC (Essen Associative Code) Database: CHINA
!!!AMT: simple duple
!!!AIN: vox
!!!EED: Helmut Schaffrath
!!!EEV: 1.0
*-
